X:1
T:Pressed For Time
D:Flook: Rubai
Z:robin.beech@mcgill.ca
R:reel
M:4/4
L:1/8
K:D
GAgG AfGA | eGAe GAeA | GAAA d2cA | GAAA d2cA |
GAgG AfGA | eGAe GAeA | cAAA dAcA | AAeA ez3 :|
GAdA cAGA | (3AAA dA cAAA  | cddd eddd | effe a z2 f |
eAAA BAeA | (3AAA ezd2cA | GAAA dAcA |1 (3AAA ezd2cA :|2 (3AAA e2z G (3B=cd |:
gggf geef | ggga geeg | fffg fedB |dBde ffdB |
eAAA GAeA | (3AAA ez ddcA | GAAA dAcA | (3AAA e2z G (3B=cd :|
gggf geef | ggga geeg | fffg fedB | dBde ffdB |1
eaae aaea | aeaa bfgf | eAae a z2 f | gfeB cdeA :|2
eAAA GAeA | (3AAA e z ddcA | GAAA dAcA | (3AAA eAe2z2 |]
